X:1
T:Bobers of Brechin, The
R:Reel
C:William Marshall/arr. Iain MacDonald Glenuig
M:C|
L:1/8
K:AMix
|:c|eaag a2eg|dega egdg|eaag a2ea|gedB ~A3c|
eaag a2eg|dega gede|dega egdg|egdB ~A3:|
|:e|A2eA cAef|gedg BGdB|A2eA cAea|gedB ~A3e|
A2eA cAef|gedg BGdB|ABcd efga|gedB ~A3:|
